cursors/src/svg/bottom_side.svg

<?xml version="1.0" encoding="UTF-8" standalone="no"?>
<svg
   xmlns:dc="http://purl.org/dc/elements/1.1/"
   xmlns:cc="http://creativecommons.org/ns#"
   xmlns:rdf="http://www.w3.org/1999/02/22-rdf-syntax-ns#"
   xmlns:svg="http://www.w3.org/2000/svg"
   xmlns="http://www.w3.org/2000/svg"
   xmlns:sodipodi="http://sodipodi.sourceforge.net/DTD/sodipodi-0.dtd"
   xmlns:inkscape="http://www.inkscape.org/namespaces/inkscape"
   width="32"
   height="32"
   version="1.1"
   viewBox="0 0 32 32"
   id="svg24"
   sodipodi:docname="bottom_side.svg"
   inkscape:version="0.92.4 5da689c313, 2019-01-14">
  <metadata
     id="metadata28">
    <rdf:RDF>
      <cc:Work
         rdf:about="">
        <dc:format>image/svg+xml</dc:format>
        <dc:type
           rdf:resource="http://purl.org/dc/dcmitype/StillImage" />
      </cc:Work>
    </rdf:RDF>
  </metadata>
  <sodipodi:namedview
     pagecolor="#ffffff"
     bordercolor="#666666"
     borderopacity="1"
     objecttolerance="10"
     gridtolerance="10"
     guidetolerance="10"
     inkscape:pageopacity="0"
     inkscape:pageshadow="2"
     inkscape:window-width="1366"
     inkscape:window-height="705"
     id="namedview26"
     showgrid="true"
     inkscape:zoom="29.846716"
     inkscape:cx="17.575519"
     inkscape:cy="0.77259332"
     inkscape:window-x="0"
     inkscape:window-y="34"
     inkscape:window-maximized="1"
     inkscape:current-layer="svg24">
    <inkscape:grid
       type="xygrid"
       id="grid835" />
  </sodipodi:namedview>
  <defs
     id="defs8">
    <filter
       id="b"
       x="-.12404"
       y="-.55819"
       width="1.2481"
       height="2.1164"
       color-interpolation-filters="sRGB">
      <feGaussianBlur
         stdDeviation="0.93032228"
         id="feGaussianBlur2" />
    </filter>
    <filter
       id="a"
       x="-.15902"
       y="-.1571"
       width="1.318"
       height="1.3142"
       color-interpolation-filters="sRGB">
      <feGaussianBlur
         stdDeviation="0.93032228"
         id="feGaussianBlur5" />
    </filter>
    <filter
       inkscape:collect="always"
       style="color-interpolation-filters:sRGB"
       id="filter887"
       x="-0.10695652"
       width="1.213913"
       y="-0.13666667"
       height="1.2733333">
      <feGaussianBlur
         inkscape:collect="always"
         stdDeviation="1.025"
         id="feGaussianBlur889" />
    </filter>
  </defs>
  <path
     inkscape:connector-curvature="0"
     id="path849"
     d="m 3,8.2031251 a 1.0001,1.0001 0 0 0 -1,1 V 25.203125 a 1.0001,1.0001 0 0 0 1,1 h 1 a 1.0001,1.0001 0 0 0 1,-1 V 9.2031251 a 1.0001,1.0001 0 0 0 -1,-1 z m 13.976562,1.9999999 a 1.0001,1.0001 0 0 0 -0.490234,0.142578 l -9.9999999,6 a 1.0001,1.0001 0 0 0 0,1.714844 l 9.9999999,6 a 1.0001,1.0001 0 0 0 1.28125,-0.216797 l 1.800781,-2.160156 A 1.0001,1.0001 0 0 0 19.441406,20.275391 C 18.529192,19.515897 18.001214,18.392007 18,17.205078 v -0.002 c 0.0021,-1.186638 0.529028,-2.309515 1.441406,-3.068359 a 1.0001,1.0001 0 0 0 0.128906,-1.410157 L 17.767578,10.5625 A 1.0001,1.0001 0 0 0 16.976562,10.203125 Z M 16.779297,12.5 17.537109,13.408203 C 16.626937,14.481793 16.00179,15.772084 16,17.201172 a 1.0001,1.0001 0 0 0 0,0.002 C 16.000767,18.633337 16.624435,19.925394 17.535156,21 L 16.779297,21.904297 8.9433594,17.203125 Z M 22,14.203125 c -1.64501,0 -3,1.35499 -3,3 0,1.64501 1.35499,3 3,3 1.64501,0 3,-1.35499 3,-3 0,-1.64501 -1.35499,-3 -3,-3 z m 0,2 c 0.564129,0 1,0.435871 1,1 0,0.564129 -0.435871,1 -1,1 -0.564129,0 -1,-0.435871 -1,-1 0,-0.564129 0.435871,-1 1,-1 z"
     style="color:#000000;font-style:normal;font-variant:normal;font-weight:normal;font-stretch:normal;font-size:medium;line-height:normal;font-family:sans-serif;font-variant-ligatures:normal;font-variant-position:normal;font-variant-caps:normal;font-variant-numeric:normal;font-variant-alternates:normal;font-feature-settings:normal;text-indent:0;text-align:start;text-decoration:none;text-decoration-line:none;text-decoration-style:solid;text-decoration-color:#000000;letter-spacing:normal;word-spacing:normal;text-transform:none;writing-mode:lr-tb;direction:ltr;text-orientation:mixed;dominant-baseline:auto;baseline-shift:baseline;text-anchor:start;white-space:normal;shape-padding:0;clip-rule:nonzero;display:inline;overflow:visible;visibility:visible;opacity:0.35;isolation:auto;mix-blend-mode:normal;color-interpolation:sRGB;color-interpolation-filters:linearRGB;solid-color:#000000;solid-opacity:1;vector-effect:none;fill:#000000;fill-opacity:1;fill-rule:nonzero;stroke:none;stroke-width:2;stroke-linecap:round;stroke-linejoin:round;stroke-miterlimit:4;stroke-dasharray:none;stroke-dashoffset:0;stroke-opacity:1;paint-order:stroke fill markers;filter:url(#filter887);color-rendering:auto;image-rendering:auto;shape-rendering:auto;text-rendering:auto;enable-background:accumulate"
     transform="rotate(-90,15.614698,16.817823)" />
  <path
     style="color:#000000;font-style:normal;font-variant:normal;font-weight:normal;font-stretch:normal;font-size:medium;line-height:normal;font-family:sans-serif;font-variant-ligatures:normal;font-variant-position:normal;font-variant-caps:normal;font-variant-numeric:normal;font-variant-alternates:normal;font-feature-settings:normal;text-indent:0;text-align:start;text-decoration:none;text-decoration-line:none;text-decoration-style:solid;text-decoration-color:#000000;letter-spacing:normal;word-spacing:normal;text-transform:none;writing-mode:lr-tb;direction:ltr;text-orientation:mixed;dominant-baseline:auto;baseline-shift:baseline;text-anchor:start;white-space:normal;shape-padding:0;clip-rule:nonzero;display:inline;overflow:visible;visibility:visible;opacity:1;isolation:auto;mix-blend-mode:normal;color-interpolation:sRGB;color-interpolation-filters:linearRGB;solid-color:#000000;solid-opacity:1;vector-effect:none;fill:#ffffff;fill-opacity:1;fill-rule:nonzero;stroke:none;stroke-width:2;stroke-linecap:round;stroke-linejoin:round;stroke-miterlimit:4;stroke-dasharray:none;stroke-dashoffset:0;stroke-opacity:1;paint-order:stroke fill markers;color-rendering:auto;image-rendering:auto;shape-rendering:auto;text-rendering:auto;enable-background:accumulate"
     d="m 7,29 a 1.0001,1.0001 0 0 0 1.0000001,1 H 24 a 1.0001,1.0001 0 0 0 1,-1 V 28 A 1.0001,1.0001 0 0 0 24,27 H 8 A 1.0001,1.0001 0 0 0 7,28 Z M 9.0000001,15.023438 a 1.0001,1.0001 0 0 0 0.142578,0.490234 l 5.9999999,10 a 1.0001,1.0001 0 0 0 1.714844,0 l 6,-10 a 1.0001,1.0001 0 0 0 -0.216797,-1.28125 l -2.160156,-1.800781 a 1.0001,1.0001 0 0 0 -1.408203,0.126953 C 18.312772,13.470808 17.188882,13.998786 16.001953,14 h -0.002 c -1.186638,-0.0021 -2.309515,-0.529028 -3.068359,-1.441406 a 1.0001,1.0001 0 0 0 -1.410157,-0.128906 l -2.162109,1.802734 a 1.0001,1.0001 0 0 0 -0.359375,0.791016 z m 2.2968749,0.197265 0.908203,-0.757812 C 13.278668,15.373063 14.568959,15.99821 15.998047,16 a 1.0001,1.0001 0 0 0 0.002,0 c 1.430212,-7.67e-4 2.722269,-0.624435 3.796875,-1.535156 l 0.90425,0.755859 L 16,23.056641 Z M 13,10 c 0,1.64501 1.35499,3 3,3 1.64501,0 3,-1.35499 3,-3 0,-1.6450099 -1.35499,-2.9999999 -3,-2.9999999 -1.64501,0 -3,1.35499 -3,2.9999999 z m 2,0 c 0,-0.564129 0.435871,-0.9999999 1,-0.9999999 0.564129,0 1,0.4358709 1,0.9999999 0,0.564129 -0.435871,1 -1,1 -0.564129,0 -1,-0.435871 -1,-1 z"
     id="path842"
     inkscape:connector-curvature="0" />
  <g
     id="g839"
     transform="rotate(-90,16,16)">
    <path
       id="rect835"
       d="M 3,8.0000001 V 24 H 4 V 8.0000001 Z M 17,10 7,16 17,22 18.800781,19.839844 A 5,5 0 0 1 17,16 5,5 0 0 1 18.802734,12.162109 Z"
       style="opacity:1;fill:#333333;fill-opacity:1;stroke:none;stroke-width:1.99273682;stroke-linecap:round;stroke-linejoin:round;stroke-miterlimit:4;stroke-dasharray:none;stroke-opacity:1;paint-order:stroke fill markers"
       inkscape:connector-curvature="0" />
    <circle
       style="opacity:1;fill:#0078d4;fill-opacity:1;stroke:none;stroke-width:1;stroke-linecap:round;stroke-linejoin:round;stroke-miterlimit:4;stroke-dasharray:none;stroke-opacity:1;paint-order:stroke fill markers"
       id="circle839"
       cx="22"
       cy="16"
       r="2" />
  </g>
</svg>

<?xml version="1.0" encoding="UTF-8" standalone="no"?>
<!DOCTYPE svg PUBLIC "-//W3C//DTD SVG 1.1//EN" "http://www.w3.org/Graphics/SVG/1.1/DTD/svg11.dtd">
<svg width="100%" height="100%" viewBox="0 0 32 32" version="1.1" xmlns="http://www.w3.org/2000/svg" xmlns:xlink="http://www.w3.org/1999/xlink" xml:space="preserve" xmlns:serif="http://www.serif.com/" style="fill-rule:evenodd;clip-rule:evenodd;stroke-linejoin:round;stroke-miterlimit:2;">
    <use id="path849" xlink:href="#_Image1" x="3.925" y="4.358" width="24px" height="28px"/>
    <path id="path842" d="M7,29C7,29.549 7.451,30 8,30L24,30C24.549,30 25,29.549 25,29L25,28C25,27.451 24.549,27 24,27L8,27C7.451,27 7,27.451 7,28L7,29ZM9,15.023C9.004,15.196 9.053,15.365 9.143,15.514L15.143,25.514C15.323,25.814 15.649,25.999 16,25.999C16.351,25.999 16.677,25.814 16.857,25.514L22.857,15.514C23.109,15.093 23.017,14.547 22.641,14.232L20.48,12.432C20.059,12.08 19.424,12.138 19.072,12.559C18.313,13.471 17.189,13.999 16.002,14L16,14C14.813,13.998 13.69,13.471 12.932,12.559C12.742,12.33 12.459,12.197 12.162,12.197C11.928,12.197 11.701,12.28 11.521,12.43L9.359,14.232C9.125,14.427 8.993,14.719 9,15.023L9,15.023ZM11.297,15.221L12.205,14.463C13.279,15.373 14.569,15.998 15.998,16C15.999,16 15.999,16 16,16C17.43,15.999 18.722,15.376 19.797,14.465L20.701,15.221L16,23.057L11.297,15.221ZM13,10C13,11.645 14.355,13 16,13C17.645,13 19,11.645 19,10C19,8.355 17.645,7 16,7C14.355,7 13,8.355 13,10ZM15,10C15,9.436 15.436,9 16,9C16.564,9 17,9.436 17,10C17,10.564 16.564,11 16,11C15.436,11 15,10.564 15,10Z" style="fill:white;fill-rule:nonzero;"/>
    <g id="g839" transform="matrix(-3.82857e-16,-1,1,-3.82857e-16,5.32907e-15,32)">
        <path id="rect835" d="M3,8L3,24L4,24L4,8L3,8ZM17,10L7,16L17,22L18.801,19.84C17.661,18.891 17.001,17.483 17,16C17.002,14.518 17.663,13.11 18.803,12.162L17,10Z" style="fill-rule:nonzero;"/>
        <circle id="circle839" cx="22" cy="16" r="2" style="fill:rgb(0,120,212);"/>
    </g>
    <defs>
        <image id="_Image1" width="24px" height="28px" xlink:href="data:image/png;base64,iVBORw0KGgoAAAANSUhEUgAAABgAAAAcCAYAAAB75n/uAAAACXBIWXMAAA7EAAAOxAGVKw4bAAAB/klEQVRIiZ2W23KcQAxED9clsfP/X+rLLrDkAXWmR2uzOFRNDQUataSWGhrOXU3at7Q/PfjMpgW62AHutrYjoP6E8w4YgNHsV+AGzHH/LUB3IvIR+A28AK/AFICEY2XxXxl0AfAL+ANcAvga+wosRyBHAF6eS0QugCYcjwG2/CQDOeji/RBLJPs7rYVCdpVJBvCOGS1q52ozkIs5V1ZVuTLJbUQ7sZP6wk6wQPIctJaVCK8APANFP4TT19gHc+IZ9PG8t0AfZiOXyDNQ5I0duid7H76ZfTZultEhBzqoocqtqA7r0plKHTKAolxjtRHZZ4CslukY9qPZa6q/5IBwPrP3tpdnMRAovOidSjOTytjavaJXxJ9xr3IoAM9Cren2lTYdaZE6pKeQtsWZKZZK+A58ULj6d30FoDbMEysSNYBDOPsIgGuO/igDgSgLycXIzo3U9GrRz9n5EYAuH75Lcn4D3o6iPwMgEGnTQCH2PQCkpk/lurGF7StlSmWvtlTUyhSSquqARKujnsiW+jOptpX+95SyyWn1EerNkQicKELmICO1ojZhr7nQ0F0pQ7lkAH13szy3tuRsSuW4h/M3y2T1EvlHRlm4cOVfnC3dr2EzW3BNbwauQ+qUM/9Nfj7/ymy9od/YW0/T+SC9TwA2HpV389ZUBznBP71E9CKAv60dxdrvwFm9AAAAAElFTkSuQmCC"/>
    </defs>
</svg>
